src/16/actions/format-node-smooth.svg

<svg xmlns="http://www.w3.org/2000/svg" width="16" height="16"><defs><style id="current-color-scheme" type="text/css"></style></defs><path d="M4 6v2H3V7H0v3h3V9h1v1h4V9h4v1h3V7h-3v1H8V6H4z" fill="currentColor" color="#565656"/></svg>

<svg xmlns="http://www.w3.org/2000/svg" width="16" height="16" viewBox="0 0 16 16">
 <defs>
  <style id="current-color-scheme" type="text/css">
   .ColorScheme-Text { color:#565656; } .ColorScheme-Highlight { color:#5294e2; }
  </style>
 </defs>
 <path style="fill:currentColor" class="ColorScheme-Text" d="M 4 6 L 4 8 L 3 8 L 3 7 L 0 7 L 0 10 L 3 10 L 3 9 L 4 9 L 4 10 L 8 10 L 8 9 L 12 9 L 12 10 L 15 10 L 15 7 L 12 7 L 12 8 L 8 8 L 8 6 L 4 6 z"/>
</svg>
